X:1
T:Title
%%score { ( 1 3 ) | ( 2 4 ) }
L:1/8
M:6/8
K:F
V:1 treble nm="Grand Piano"
V:3 treble 
V:2 bass 
V:4 bass 
V:1
 z3 z2[Q:1/4=90] C | FFF FEF | [EG][EG][EG] .[EG]3 | [EG][EG][EG] [EG][DF][EG] | AAA A2 C | %5
 AAA [FAc][CGB][CFA] |[M:7/8] [DFB][DFB][DFB] [Fd]3 [Fd] |[M:3/4] [Fc][DFB] [FA][EG] [FA][GB] | %8
[M:5/8] [FA][FA][EG] [CF]2 |[M:1/8] [FA] |[M:3/4] c4 z2 | [GB][GB] [GB] [GB]2 [EG] | %12
 [GB][GB] [GB][GB] [FA]G | c6 | [CAc][CAc] [CAc][FAc] [CGB][CFA] | %15
[M:7/8] [DFB][DFB][DFB] [Fd]3 [Fd] |[M:3/4] [Fc][DFB] [CFA][B,EG] [CEA][B,EG] |[M:5/8] F-F- F3 |] %18
V:2
 z3 z2 [F,A,] | [F,A,C][F,A,C][F,A,C] [F,A,C][F,G,C][F,A,C] | [C,C][C,C][C,C] [C,C]2 [C,C] | %3
 [C,C][C,C][C,C] [C,C][C,C][C,C] | [F,CF][F,CF][F,CF] [F,CF]2 [F,A,] | [F,CF][F,CF][F,CF] F,F,F, | %6
[M:7/8] B,,B,,B,, [B,,B,]3 [B,,B,] |[M:3/4] [C,A,]C, [C,C][C,C] [C,C][C,C] | %8
[M:5/8] [C,C][C,C][C,B,] [F,A,]2 |[M:1/8] [F,C] |[M:3/4] [F,C][F,C] [F,C][F,F] [F,C][F,C] | %11
 [C,C][C,C] [C,C] [C,C]2 [C,C] | [C,C][C,C] [C,C][C,C] [C,C][K:treble][B,CE] | %13
 [A,CF][K:bass][A,C] [G,B,] [F,A,]2 [F,CF] | F,F, F,F, F,F, |[M:7/8] B,,B,,B,, [B,,B,]3 [B,,B,] | %16
[M:3/4] [C,A,]C, C,C, C,C, |[M:5/8] z A,B, A,2 |] %18
V:3
 x6 | x6 | x6 | x6 | x6 | x6 |[M:7/8] x7 |[M:3/4] x6 |[M:5/8] x5 |[M:1/8] x | %10
[M:3/4] AA AA [GB][FA] | x6 | x6 | z F E F2 A | x6 |[M:7/8] x7 |[M:3/4] x6 |[M:5/8] [A,C]CD C2 |] %18
V:4
 x6 | x6 | x6 | x6 | x6 | x6 |[M:7/8] x7 |[M:3/4] x6 |[M:5/8] x5 |[M:1/8] x |[M:3/4] x6 | x6 | %12
 x5[K:treble] x | x[K:bass] x5 | x6 |[M:7/8] x7 |[M:3/4] x6 |[M:5/8] F,-F,- F,3 |] %18

